FINK
CUT[NACH DER HEIMATH MOECHT ICH WIEDER]
REG[Europa, Mitteleuropa, Deutschland]
KEY[F0455  16  G 3/4]
MEL[5432  1__.3_21-71  1#__2__
    654#5  7__.6_5_4_  3__0__
    6_4#_  5_4#32__.1_  1__-7__
    3_3_  3__^21-72_1-6  -5__0__
    5_5_  6__.5_2_2#_  3__1_0_
    5_+1_  +1__7_6_5_4_  3___
    3_3_  3__2__3_2_  6__5__
    4_2_  1_2_3__3_2_  1__0___
    5___^_2_  4_3_0__
    5_6_  5___^_-7_  2__1__ //] >>
FCT[Heimat - Lied, Heimweh]
